svg/fluentui-system-icons/ic_fluent_weather_snowflake_48_regular.svg

<svg width="48" height="48" viewBox="0 0 48 48" fill="none" xmlns="http://www.w3.org/2000/svg">
<path d="M24.25 3.5C24.9404 3.5 25.5 4.05964 25.5 4.75V13.4822L30.6161 8.36612C31.1043 7.87796 31.8957 7.87796 32.3839 8.36612C32.872 8.85427 32.872 9.64573 32.3839 10.1339L25.5 17.0178V23H31.4822L38.3661 16.1161C38.8543 15.628 39.6457 15.628 40.1339 16.1161C40.622 16.6043 40.622 17.3957 40.1339 17.8839L35.0178 23H43.75C44.4404 23 45 23.5596 45 24.25C45 24.9404 44.4404 25.5 43.75 25.5H35.0178L39.8839 30.3661C40.372 30.8543 40.372 31.6457 39.8839 32.1339C39.3957 32.622 38.6043 32.622 38.1161 32.1339L31.4822 25.5H25.5V31.4822L32.1339 38.1161C32.622 38.6043 32.622 39.3957 32.1339 39.8839C31.6457 40.372 30.8543 40.372 30.3661 39.8839L25.5 35.0178V43.75C25.5 44.4404 24.9404 45 24.25 45C23.5596 45 23 44.4404 23 43.75V35.0178L17.8839 40.1339C17.3957 40.622 16.6043 40.622 16.1161 40.1339C15.628 39.6457 15.628 38.8543 16.1161 38.3661L23 31.4822V25.5H17.0178L10.1339 32.3839C9.64573 32.872 8.85427 32.872 8.36612 32.3839C7.87796 31.8957 7.87796 31.1043 8.36612 30.6161L13.4822 25.5H4.75C4.05964 25.5 3.5 24.9404 3.5 24.25C3.5 23.5596 4.05964 23 4.75 23H13.4822L8.11612 17.6339C7.62796 17.1457 7.62796 16.3543 8.11612 15.8661C8.60427 15.378 9.39573 15.378 9.88388 15.8661L17.0178 23H23V17.0178L15.8661 9.88388C15.378 9.39573 15.378 8.60427 15.8661 8.11612C16.3543 7.62796 17.1457 7.62796 17.6339 8.11612L23 13.4822V4.75C23 4.05964 23.5596 3.5 24.25 3.5Z" fill="#212121"/>
</svg>

<svg xmlns="http://www.w3.org/2000/svg" width="48" height="48"><path d="M24.25 3.5c.69 0 1.25.56 1.25 1.25v8.732l5.116-5.116a1.25 1.25 0 0 1 1.768 1.768L25.5 17.018V23h5.982l6.884-6.884a1.25 1.25 0 0 1 1.768 1.768L35.018 23h8.732a1.25 1.25 0 1 1 0 2.5h-8.732l4.866 4.866a1.25 1.25 0 0 1-1.768 1.768L31.482 25.5H25.5v5.982l6.634 6.634a1.25 1.25 0 0 1-1.768 1.768L25.5 35.018v8.732a1.25 1.25 0 1 1-2.5 0v-8.732l-5.116 5.116a1.25 1.25 0 0 1-1.768-1.768L23 31.482V25.5h-5.982l-6.884 6.884a1.25 1.25 0 0 1-1.768-1.768l5.116-5.116H4.75a1.25 1.25 0 1 1 0-2.5h8.732l-5.366-5.366a1.25 1.25 0 0 1 1.768-1.768L17.018 23H23v-5.982l-7.134-7.134a1.25 1.25 0 0 1 1.768-1.768L23 13.482V4.75c0-.69.56-1.25 1.25-1.25Z"/></svg>
